static/icons/facebook.svg

<svg xmlns="http://www.w3.org/2000/svg" width="24" height="24" viewBox="0 0 24 24">
  <path fill-rule="evenodd" d="M19.1145833,4 C19.6041667,4 20,4.39583333 20,4.88541667 L20,19.1145833 C20,19.6041667 19.6041667,20 19.1145833,20 L15.0416667,20 L15.0416667,13.8020833 L17.1145833,13.8020833 L17.4270833,11.3854167 L15.0416667,11.3854167 L15.0416667,9.84375 C15.0416667,9.14583333 15.2291667,8.67708333 16.2395833,8.67708333 L17.5104167,8.66666667 L17.5104167,6.51041667 C17.2916667,6.47916667 16.53125,6.41666667 15.65625,6.41666667 C13.8125,6.41666667 12.5416667,7.54166667 12.5416667,9.60416667 L12.5416667,11.3854167 L10.4583333,11.3854167 L10.4583333,13.8020833 L12.5416667,13.8020833 L12.5416667,20 L4.88541667,20 C4.39583333,20 4,19.6041667 4,19.1145833 L4,4.88541667 C4,4.39583333 4.39583333,4 4.88541667,4 L19.1145833,4 Z"/>
</svg>

<svg xmlns="http://www.w3.org/2000/svg" width="24" height="24">
    <path fill-rule="evenodd" d="M19.115 4c.49 0 .885.396.885.885v14.23c0 .49-.396.885-.885.885h-4.073v-6.198h2.073l.312-2.417h-2.385V9.844c0-.698.187-1.167 1.198-1.167l1.27-.01V6.51c-.218-.03-.979-.093-1.854-.093-1.844 0-3.114 1.125-3.114 3.187v1.781h-2.084v2.417h2.084V20H4.885A.885.885 0 0 1 4 19.115V4.885c0-.49.396-.885.885-.885h14.23z"/>
</svg>
